icons/TrainWagon_1.svg

<svg width="24" height="24" viewBox="0 0 24 24" fill="none" xmlns="http://www.w3.org/2000/svg">
<path fill-rule="evenodd" clip-rule="evenodd" d="M9.25,2.75c0,-0.41421 0.33579,-0.75 0.75,-0.75h4c0.4142,0 0.75,0.33579 0.75,0.75v1.5h1.375c3.1066,0 5.625,2.5184 5.625,5.625c0,1.6298 -0.6931,3.0977 -1.8007,4.125h1.0507c0.4142,0 0.75,0.3358 0.75,0.75c0,0.4142 -0.3358,0.75 -0.75,0.75h-2.2637c0.009,0.0821 0.0137,0.1655 0.0137,0.25c0,1.2426 -1.0074,2.25 -2.25,2.25c-1.2426,0 -2.25,-1.0074 -2.25,-2.25c0,-0.0845 0.0047,-0.1679 0.0137,-0.25h-4.52743c0.00907,0.0821 0.01373,0.1655 0.01373,0.25c0,1.2426 -1.00736,2.25 -2.25,2.25c-1.24264,0 -2.25,-1.0074 -2.25,-2.25c0,-0.0845 0.00466,-0.1679 0.01373,-0.25h-2.26373c-0.41421,0 -0.75,-0.3358 -0.75,-0.75c0,-0.4142 0.33579,-0.75 0.75,-0.75h1.0507c-1.10757,-1.0273 -1.8007,-2.4952 -1.8007,-4.125c0,-3.1066 2.5184,-5.625 5.625,-5.625h1.375zM6.79268,15.5c-0.02764,0.0782 -0.04268,0.1623 -0.04268,0.25c0,0.4142 0.33579,0.75 0.75,0.75c0.41421,0 0.75,-0.3358 0.75,-0.75c0,-0.0877 -0.01504,-0.1718 -0.04268,-0.25h-0.33232zM15.7927,15.5c-0.0277,0.0782 -0.0427,0.1623 -0.0427,0.25c0,0.4142 0.3358,0.75 0.75,0.75c0.4142,0 0.75,-0.3358 0.75,-0.75c0,-0.0877 -0.015,-0.1718 -0.0427,-0.25h-1.0823zM7.5,18h9h5.5c0.4142,0 0.75,0.3358 0.75,0.75c0,0.4142 -0.3358,0.75 -0.75,0.75h-20c-0.41421,0 -0.75,-0.3358 -0.75,-0.75c0,-0.4142 0.33579,-0.75 0.75,-0.75zM10.75,3.5v0.75h2.5v-0.75zM3.75,9.875c0,2.2782 1.84683,4.125 4.125,4.125h8.25c2.2782,0 4.125,-1.8468 4.125,-4.125c0,-2.27817 -1.8468,-4.125 -4.125,-4.125h-2.125h-4h-2.125c-2.27817,0 -4.125,1.84683 -4.125,4.125z" fill="#002B51"/>
</svg>

<svg width="24" height="24" viewBox="0 0 24 24" fill="none" xmlns="http://www.w3.org/2000/svg">
<path fill-rule="evenodd" clip-rule="evenodd" d="M9.25 2.75C9.25 2.33579 9.58579 2 10 2H14C14.4142 2 14.75 2.33579 14.75 2.75V4.25H16.125C19.2316 4.25 21.75 6.7684 21.75 9.875C21.75 11.5048 21.0569 12.9727 19.9493 14H21C21.4142 14 21.75 14.3358 21.75 14.75C21.75 15.1642 21.4142 15.5 21 15.5H18.7363C18.7453 15.5821 18.75 15.6655 18.75 15.75C18.75 16.9926 17.7426 18 16.5 18C15.2574 18 14.25 16.9926 14.25 15.75C14.25 15.6655 14.2547 15.5821 14.2637 15.5H9.73627C9.74534 15.5821 9.75 15.6655 9.75 15.75C9.75 16.9926 8.74264 18 7.5 18C6.25736 18 5.25 16.9926 5.25 15.75C5.25 15.6655 5.25466 15.5821 5.26373 15.5H3C2.58579 15.5 2.25 15.1642 2.25 14.75C2.25 14.3358 2.58579 14 3 14H4.0507C2.94313 12.9727 2.25 11.5048 2.25 9.875C2.25 6.7684 4.7684 4.25 7.875 4.25H9.25V2.75ZM6.79268 15.5C6.76504 15.5782 6.75 15.6623 6.75 15.75C6.75 16.1642 7.08579 16.5 7.5 16.5C7.91421 16.5 8.25 16.1642 8.25 15.75C8.25 15.6623 8.23496 15.5782 8.20732 15.5H7.875H6.79268ZM15.7927 15.5C15.765 15.5782 15.75 15.6623 15.75 15.75C15.75 16.1642 16.0858 16.5 16.5 16.5C16.9142 16.5 17.25 16.1642 17.25 15.75C17.25 15.6623 17.235 15.5782 17.2073 15.5H16.125H15.7927ZM7.5 18H16.5H22C22.4142 18 22.75 18.3358 22.75 18.75C22.75 19.1642 22.4142 19.5 22 19.5H2C1.58579 19.5 1.25 19.1642 1.25 18.75C1.25 18.3358 1.58579 18 2 18H7.5ZM13.25 3.5V4.25H10.75V3.5H13.25ZM7.875 5.75H10H14H16.125C18.4032 5.75 20.25 7.59683 20.25 9.875C20.25 12.1532 18.4032 14 16.125 14H7.875C5.59683 14 3.75 12.1532 3.75 9.875C3.75 7.59683 5.59683 5.75 7.875 5.75Z" fill="#002B51"/>
</svg>
